assets/medical-grey/MedicalGrey21.svg

<svg xmlns="http://www.w3.org/2000/svg" id="icons" viewBox="0 0 64 64"><defs><style>.cls-1{fill:none;stroke:#000;stroke-linecap:round;stroke-linejoin:round;stroke-width:2px}</style></defs><g id="nurse"><path d="M10.16 56.71h42.52v-2.85c0-8.7-5.6-15.76-12.51-15.76H38l-6.5 8.61L25 38.1h-2.33c-6.91 0-12.51 7.06-12.51 15.76z" class="cls-1"/><path d="M24.53 38.1l-5.61 9.31 13.03-.7 12.8.7-5.43-9.31M39.42 21.17c0 4.93-3.31 11.93-7.41 11.93s-7.43-7-7.43-11.93l4.12-3.54" class="cls-1"/><path d="M27.57 30.3h-9.22a14.27 14.27 0 002.31-7 11.9 11.9 0 011.06-5.68M41.52 17.63a12.33 12.33 0 011.85 5.93 14.45 14.45 0 002.3 7h-9.21" class="cls-1"/><path d="M45.41 6.53l-3.89 11.1h-19.8l-3.37-11.1h27.06zM39.42 21.17l-4.24-3.54M32.01 14.39V9.76M29.67 12.08h4.68M31.95 46.71v10" class="cls-1"/></g></svg>

<svg xmlns="http://www.w3.org/2000/svg" id="icons" viewBox="0 0 64 64"><defs><style>.cls-1{fill:none;stroke:#000;stroke-linecap:round;stroke-linejoin:round;stroke-width:2px;}</style></defs><g id="nurse"><path d="M10.16 56.71h42.52v-2.85c0-8.7-5.6-15.76-12.51-15.76H38l-6.5 8.61L25 38.1h-2.33c-6.91 0-12.51 7.06-12.51 15.76z" class="cls-1"/><path d="M24.53 38.1 18.92 47.41 31.95 46.71 44.75 47.41 39.32 38.1" class="cls-1"/><path d="M39.42 21.17c0 4.93-3.31 11.93-7.41 11.93s-7.43-7-7.43-11.93l4.12-3.54" class="cls-1"/><path d="M27.57 30.3h-9.22a14.27 14.27 0 0 0 2.31-7 11.9 11.9 0 0 1 1.06-5.68M41.52 17.63a12.33 12.33 0 0 1 1.85 5.93 14.45 14.45 0 0 0 2.3 7h-9.21" class="cls-1"/><path d="M45.41 6.53 41.52 17.63 21.72 17.63 18.35 6.53 45.41 6.53z" class="cls-1"/><path d="M39.42 21.17 35.18 17.63" class="cls-1"/><path d="M32.01 14.39 32.01 9.76" class="cls-1"/><path d="M29.67 12.08 34.35 12.08" class="cls-1"/><path d="M31.95 46.71 31.95 56.71" class="cls-1"/></g></svg>
